X:1
T:Title
%%score 1 2
L:1/8
Q:1/4=100
M:4/4
K:C
V:1 treble nm="Grand Piano, Piano"
V:2 bass nm="Grand Piano, Piano"
V:1
 [EG][EG][_E^F][=EG] [=Fc][Fc][FB][FA] | [EG]6 [EG][FA] | [EG]>[DF] [DF]4 [FA][FB] | %3
w: Je sus~ is~ the~ sweet est~ name~ I~|know,~ And~ He's~|just~ the~ same~ as~ His~|
 [FA]>[EG] [EG]4 [EG]2 | [EG][EG][_E^F][=EG] [=Fc][Fc][FB][FA] | [EG]6 [CE]2 | %6
w: love ly~ name,~ And~|that's~ the~ re ason~ why~ I~ love~ Him~|so;~ Oh,~|
 [CD][CD][CD][^CE] [DF][=CF][B,E][B,D] | C8 |] %8
w: Je sus~ is~ the~ sweet est~ name~ I~|know.~|
V:2
 [C,C][C,C][C,A,][C,G,] [C,A,][C,A,][C,A,][C,B,] | [C,C]6 [C,C][C,C] | %2
 [G,B,]>[G,B,] [G,B,]4 [G,C][G,D] | [C,C]>[C,C] [C,C]4 [C,C]2 | %4
 [C,C][C,C][C,A,][C,G,] [C,A,][C,A,][C,A,][C,B,] | [C,C]6 [G,_B,]2 | %6
 [F,A,][F,A,][F,A,][E,G,] [D,A,][D,A,][G,,G,][G,,F,] | [C,E,]8 |] %8

